X: 10
T:North Ashton Frolick. JB.10
T:North Aston Frolic,aka. JB.10
M:6/8
L:1/8
Q:110
S:James Biggins MS, Leeds, 1779.
R:Jig
O:England
A:Yorkshire
N:Vickers has this tune in 3 parts
Z:
Z:vmp.Nick Barber & Chris Partingto
K:G
D/E/F/|G2DG2D|GAB cBA|B2GB2G|Bcd edc|dcB ABG|FGED2c|BGB AFD|G3-G2:|
|:f|gfg efg|abg fed|gfg efg|fged3|cBc acA|BAB gfe|dcB AGF|G3-G2:|]
